X: 39306
T: Taking The Tent Down
R: jig
M: 6/8
K: Gmajor
|:G2g fGd-|d2G ABd|e2d BAG|ABd B2A|
G2g fGd-|d2G ABG|BcA BGE|1 DEG ABG-:|2 DEG ABG||
AEG AdA|eAc BGA|DFG ADd-|d2D GFD|
EGA cde|age-e2e|deg edB|BcA BAG|
EGA dAe|deg a2g|fgf dAG|FDd-d2D|
EGA gAe|deA-A2B|cdg fgd|ecA d3||

